src/pos-icons/pencil-lock-outline.svg

<svg height="24" viewBox="0 0 24 24" width="24" xmlns="http://www.w3.org/2000/svg"><path d="m16.1 9 .9.9-9.1 9.1h-.9v-.9zm3.6-6c-.2 0-.5.1-.7.3l-1.8 1.8 3.7 3.8 1.8-1.9c.4-.4.4-1 0-1.4l-2.3-2.3c-.2-.2-.5-.3-.7-.3m-3.6 3.2-11.1 11v3.8h3.8l11-11.1zm-8.1-1.2v-.5c0-1.4-1.1-2.5-2.5-2.5s-2.5 1.1-2.5 2.5v.5c-.6 0-1 .4-1 1v4c0 .6.4 1 1 1h5c.6 0 1-.4 1-1v-4c0-.6-.4-1-1-1m-1 0h-3v-.5c0-.8.7-1.5 1.5-1.5s1.5.7 1.5 1.5z"/></svg>

<?xml version="1.0" encoding="UTF-8"?><!DOCTYPE svg PUBLIC "-//W3C//DTD SVG 1.1//EN" "http://www.w3.org/Graphics/SVG/1.1/DTD/svg11.dtd"><svg xmlns="http://www.w3.org/2000/svg" xmlns:xlink="http://www.w3.org/1999/xlink" version="1.1" id="mdi-pencil-lock-outline" width="24" height="24" viewBox="0 0 24 24"><path d="M16.1,9L17,9.9L7.9,19H7V18.1L16.1,9M19.7,3C19.5,3 19.2,3.1 19,3.3L17.2,5.1L20.9,8.9L22.7,7C23.1,6.6 23.1,6 22.7,5.6L20.4,3.3C20.2,3.1 19.9,3 19.7,3M16.1,6.2L5,17.2V21H8.8L19.8,9.9L16.1,6.2M8,5V4.5C8,3.1 6.9,2 5.5,2C4.1,2 3,3.1 3,4.5V5C2.4,5 2,5.4 2,6V10C2,10.6 2.4,11 3,11H8C8.6,11 9,10.6 9,10V6C9,5.4 8.6,5 8,5M7,5H4V4.5C4,3.7 4.7,3 5.5,3C6.3,3 7,3.7 7,4.5V5Z" /></svg>
